**kern	**kern
*part1	*part1
*staff2	*staff1
*I"Piano	*
*clefF4	*clefG2
*k[f#c#g#d#a#]	*k[f#c#g#d#a#]
=1	=1
*^	*^
4gn	2.E	4bb	8bbL
.	.	.	8b
4e	.	4ggn	8gg
.	.	.	8b
4B	.	4ee	8ee
.	.	.	8bJ
=	=	=	=
4A#	2.FF#	4cc#	8cc#L
.	.	.	8f#
4G#	.	4b	8b
.	.	.	8f#
4A#	.	4cc#	8cc#
.	.	.	8f#J
=	=	=	=
4B	2.BB	4dd#	8dd#L
.	.	.	8f#
4F#	.	4b	8b
.	.	.	8f#
4d#	.	4ff#	8ff#
.	.	.	8bJ
=	=	=	=
4gn	2.E	(4bb	8bbL
.	.	.	8b
4e	.	4ggn	8gg
.	.	.	8b
4B	.	4ee	8ee
.	.	.	8bJ
=	=	=	=
4gn	2.E	4bb	8bbL
.	.	.	8b
4e	.	4ggn	8gg
.	.	.	8b
4B	.	4ee	8ee
.	.	.	8bJ)
=	=	=	=
4A#	2.FF#	4cc#	8cc#L
.	.	.	8f#
4G#	.	4b	8b
.	.	.	8f#
4A#	.	4cc#	8cc#
.	.	.	8f#J
=	=	=	=
4B	2.BB	4dd#	8dd#L
.	.	.	8f#
4F#	.	4b	8b
.	.	.	8f#
4d#	.	4ff#	8ff#
.	.	.	8f#J
=	=	=	=
4A#	2.FF#	4cc#	8cc#L
.	.	.	8f#
4G#	.	4b	8b
.	.	.	8f#
4A#	.	4cc#	8cc#
.	.	.	8f#J
*v	*v	*	*
*	*v	*v
=	=
*-	*-
!!!system-decoration: {(s1,s2)}
